src/pages/wip/assets/pylon.svg

<svg viewBox="0 0 1000 500" xmlns="http://www.w3.org/2000/svg" xml:space="preserve" style="fill-rule:evenodd;clip-rule:evenodd;stroke-linejoin:round;stroke-miterlimit:2"><path d="M1112.43 726.435H807.565l28.441-304.87h276.424v304.87Z" style="fill:url(#a)" transform="matrix(3.28009 0 0 .79945 -2648.88 -101.021)"/><path d="M1112.43 726.435H807.565l28.441-304.87h276.424v304.87Zm-.6-2.502H808.451l27.974-299.866h275.405v299.866Z" style="fill:url(#b)" transform="matrix(3.28009 0 0 .79945 -2648.88 -101.021)"/><g transform="matrix(.31875 0 0 .34528 -112.004 -107.729)"><g transform="matrix(1 0 0 1.35514 0 -373.639)"><path d="M2337.05 1293.39v28.99c0 5.02-2 10-5.9 14.29-6.45 7.08-17.26 11.33-28.82 11.33h-764.66c-11.56 0-22.37-4.25-28.82-11.33-3.9-4.29-5.9-9.27-5.9-14.29v-28.99h834.1Z" style="fill:#ef802a"/><clipPath id="c"><path d="M2337.05 1293.39v28.99c0 5.02-2 10-5.9 14.29-6.45 7.08-17.26 11.33-28.82 11.33h-764.66c-11.56 0-22.37-4.25-28.82-11.33-3.9-4.29-5.9-9.27-5.9-14.29v-28.99h834.1Z"/></clipPath><g clip-path="url(#c)"><path d="M2337.05 1418.46c0 9.18-3.65 17.99-10.14 24.49a34.67 34.67 0 0 1-24.49 10.14H1816v-74h521.05v39.37Z" style="fill:url(#d)" transform="matrix(1 0 0 .73793 0 275.72)"/></g><path d="M2337.05 1293.39v28.99c0 5.02-2 10-5.9 14.29-6.45 7.08-17.26 11.33-28.82 11.33h-764.66c-11.56 0-22.37-4.25-28.82-11.33-3.9-4.29-5.9-9.27-5.9-14.29v-28.99h834.1Zm-8.37 5.7v23.29c0 3.96-1.56 7.9-4.64 11.28-4.88 5.36-12.97 8.64-21.71 8.64h-764.66c-8.74 0-16.83-3.28-21.71-8.64-3.08-3.38-4.64-7.32-4.64-11.28v-23.29h817.36Z" style="fill:url(#e)"/></g><g transform="matrix(1 0 0 1.35514 0 -412.639)"><path d="M2334.47 1312.7c4.37 7.9 3.13 16.89-3.32 23.97-1.78 1.95-3.87 3.68-6.22 5.17-6.19 3.93-14.14 6.16-22.6 6.16h-764.66c-11.56 0-22.37-4.25-28.82-11.33-6.45-7.08-7.69-16.07-3.32-23.97 26.04-47.09 71.07-128.49 90.03-162.76 5.33-9.64 18.03-15.94 32.14-15.94h584.6c14.11 0 26.81 6.3 32.15 15.94 18.95 34.27 63.98 115.67 90.02 162.76Z" style="fill:url(#f)"/><clipPath id="g"><path d="M2334.47 1312.7c4.37 7.9 3.13 16.89-3.32 23.97-1.78 1.95-3.87 3.68-6.22 5.17-6.19 3.93-14.14 6.16-22.6 6.16h-764.66c-11.56 0-22.37-4.25-28.82-11.33-6.45-7.08-7.69-16.07-3.32-23.97 26.04-47.09 71.07-128.49 90.03-162.76 5.33-9.64 18.03-15.94 32.14-15.94h584.6c14.11 0 26.81 6.3 32.15 15.94 18.95 34.27 63.98 115.67 90.02 162.76Z"/></clipPath><g clip-path="url(#g)"><path d="m2015 1158.84-178.43.25-11.57 42.6v177.4h190v-220.25Z" style="fill:url(#h)" transform="matrix(2.7226 0 .73864 .54527 -4171.39 596.026)"/></g><path d="M2334.47 1312.7c4.37 7.9 3.13 16.89-3.32 23.97-1.78 1.95-3.87 3.68-6.22 5.17-6.19 3.93-14.14 6.16-22.6 6.16h-764.66c-11.56 0-22.37-4.25-28.82-11.33-6.45-7.08-7.69-16.07-3.32-23.97 26.04-47.09 71.07-128.49 90.03-162.76 5.33-9.64 18.03-15.94 32.14-15.94h584.6c14.11 0 26.81 6.3 32.15 15.94 18.95 34.27 63.98 115.67 90.02 162.76Zm-7.83 2.01c3.46 6.24 2.5 13.35-2.6 18.95a23.516 23.516 0 0 1-4.81 4.01c-4.63 2.94-10.57 4.63-16.9 4.63h-764.66c-8.74 0-16.83-3.28-21.71-8.64-5.1-5.6-6.06-12.71-2.6-18.95 26.04-47.09 71.07-128.49 90.02-162.76 4.06-7.33 13.59-12.25 24.32-12.25h584.6c10.73 0 20.26 4.92 24.32 12.25 18.95 34.27 63.98 115.67 90.02 162.76Z" style="fill:url(#i)"/></g><path d="M1847.85 640.538c2.82-12.042 34.07-21.544 72.15-21.544 38.08 0 69.33 9.502 72.15 21.544l177.37 605.322a31.91 31.91 0 0 1 1.27 8.9c0 44.61-112.37 80.83-250.79 80.83s-250.79-36.22-250.79-80.83c0-3.01.43-6.01 1.27-8.9l177.37-605.322Z" style="fill:url(#j)"/><clipPath id="k"><path d="M1847.85 640.538c2.82-12.042 34.07-21.544 72.15-21.544 38.08 0 69.33 9.502 72.15 21.544l177.37 605.322a31.91 31.91 0 0 1 1.27 8.9c0 44.61-112.37 80.83-250.79 80.83s-250.79-36.22-250.79-80.83c0-3.01.43-6.01 1.27-8.9l177.37-605.322Z"/></clipPath><g clip-path="url(#k)"><path d="M2131.12 1100.8c0 36.82-94.6 66.71-211.12 66.71-116.52 0-211.08-29.89-211.08-66.71l33.69-112.754c0 30.954 79.43 56.084 177.39 56.084 97.96 0 177.39-25.13 177.39-56.084l33.73 112.754Z" style="fill:url(#l)" transform="matrix(1.01487 0 0 1.0351 -28.55 -14.027)"/><path d="M2130.9 1100.8c0 36.82-94.38 66.71-210.9 66.71-116.52 0-210.9-29.89-210.9-66.71l52.72-176.411c0 27.678 70.59 50.149 158.18 50.149s158.18-22.471 158.18-50.149l52.72 176.411Z" style="fill:url(#m)" transform="matrix(.68295 0 0 .69656 608.741 119.095)"/></g><path d="M1847.85 640.538c2.82-12.042 34.07-21.544 72.15-21.544 38.08 0 69.33 9.502 72.15 21.544l177.37 605.322a31.91 31.91 0 0 1 1.27 8.9c0 44.61-112.37 80.83-250.79 80.83s-250.79-36.22-250.79-80.83c0-3.01.43-6.01 1.27-8.9l177.37-605.322Zm8.07 2.017c.04-.128.08-.257.11-.386.23-.992 1.15-1.794 2.25-2.679 2.12-1.71 5.04-3.243 8.56-4.658 12.47-5.02 31.67-8.115 53.16-8.115 21.49 0 40.69 3.095 53.16 8.115 3.52 1.415 6.44 2.948 8.56 4.658 1.1.885 2.02 1.687 2.25 2.679.03.129.07.258.11.386l177.36 605.325c.66 2.23.99 4.55.99 6.88 0 7.11-3.88 13.81-10.48 20.21-7.72 7.46-19.02 14.33-33.17 20.54-44.83 19.71-117.22 32.36-198.78 32.36s-153.95-12.65-198.78-32.36c-14.15-6.21-25.45-13.08-33.17-20.54-6.61-6.4-10.48-13.1-10.48-20.21 0-2.33.33-4.65.99-6.88l177.36-605.325Z" style="fill:url(#n)"/><g transform="matrix(.28943 0 0 .2952 1364.29 275.971)"><ellipse cx="1920" cy="1241" rx="250" ry="79" style="fill:url(#o)"/><path d="M1920 1162c137.98 0 250 35.4 250 79s-112.02 79-250 79c-137.98 0-250-35.4-250-79s112.02-79 250-79Zm0 26.16c77.65 0 146.63 11.42 189.31 29.82 11.46 4.94 20.77 10.19 27.03 16.12 2.44 2.32 4.76 4.32 4.76 6.9s-2.32 4.58-4.76 6.9c-6.26 5.93-15.57 11.18-27.03 16.12-42.68 18.4-111.66 29.82-189.31 29.82s-146.63-11.42-189.31-29.82c-11.46-4.94-20.77-10.19-27.03-16.12-2.44-2.32-4.76-4.32-4.76-6.9s2.32-4.58 4.76-6.9c6.26-5.93 15.57-11.18 27.03-16.12 42.68-18.4 111.66-29.82 189.31-29.82Z" style="fill:url(#p)"/></g></g><defs><linearGradient id="d" x1="0" y1="0" x2="1" y2="0" gradientUnits="userSpaceOnUse" gradientTransform="translate(1816 1416.09) scale(521.048)"><stop offset="0" style="stop-color:#da5313;stop-opacity:.3"/><stop offset="1" style="stop-color:#f19266;stop-opacity:.3"/></linearGradient><linearGradient id="e" x1="0" y1="0" x2="1" y2="0" gradientUnits="userSpaceOnUse" gradientTransform="matrix(732.048 242.779 -356.385 498.692 1605 1105.22)"><stop offset="0" style="stop-color:white;stop-opacity:.15"/><stop offset="1" style="stop-color:white;stop-opacity:0"/></linearGradient><linearGradient id="f" x1="0" y1="0" x2="1" y2="0" gradientUnits="userSpaceOnUse" gradientTransform="matrix(730.048 214 -314.139 497.329 1607 1134)"><stop offset="0" style="stop-color:#f29954;stop-opacity:1"/><stop offset="1" style="stop-color:#f08b3d;stop-opacity:1"/></linearGradient><linearGradient id="h" x1="0" y1="0" x2="1" y2="0" gradientUnits="userSpaceOnUse" gradientTransform="matrix(-59.5126 219.362 -59.535 0 1922.71 1159.73)"><stop offset="0" style="stop-color:#c5541e;stop-opacity:.4"/><stop offset=".54" style="stop-color:#cd571e;stop-opacity:.33"/><stop offset="1" style="stop-color:#eb6120;stop-opacity:.1"/></linearGradient><linearGradient id="i" x1="0" y1="0" x2="1" y2="0" gradientUnits="userSpaceOnUse" gradientTransform="matrix(732.048 242.779 -356.385 498.692 1605 1134)"><stop offset="0" style="stop-color:white;stop-opacity:.35"/><stop offset="1" style="stop-color:white;stop-opacity:.17"/></linearGradient><linearGradient id="j" x1="0" y1="0" x2="1" y2="0" gradientUnits="userSpaceOnUse" gradientTransform="matrix(387 387 -419.212 357.263 1775.91 890)"><stop offset="0" style="stop-color:#ef802a;stop-opacity:1"/><stop offset="1" style="stop-color:#df6217;stop-opacity:1"/></linearGradient><linearGradient id="l" x1="0" y1="0" x2="1" y2="0" gradientUnits="userSpaceOnUse" gradientTransform="matrix(422.207 0 0 413.955 1708.92 1056.93)"><stop offset="0" style="stop-color:#ebebeb;stop-opacity:1"/><stop offset=".56" style="stop-color:#e6dfdd;stop-opacity:1"/><stop offset="1" style="stop-color:#d1b1a8;stop-opacity:1"/></linearGradient><linearGradient id="m" x1="0" y1="0" x2="1" y2="0" gradientUnits="userSpaceOnUse" gradientTransform="matrix(421.804 0 0 413.559 1709.1 1045.95)"><stop offset="0" style="stop-color:#ebebeb;stop-opacity:1"/><stop offset=".56" style="stop-color:#e6dfdd;stop-opacity:1"/><stop offset="1" style="stop-color:#d1b1a8;stop-opacity:1"/></linearGradient><linearGradient id="n" x1="0" y1="0" x2="1" y2="0" gradientUnits="userSpaceOnUse" gradientTransform="matrix(144.035 505.096 -547.139 132.967 1920 618.994)"><stop offset="0" style="stop-color:white;stop-opacity:.3"/><stop offset="1" style="stop-color:white;stop-opacity:0"/></linearGradient><linearGradient id="p" x1="0" y1="0" x2="1" y2="0" gradientUnits="userSpaceOnUse" gradientTransform="matrix(93.2868 416.688 -460.37 84.4354 1920 1162)"><stop offset="0" style="stop-color:white;stop-opacity:.3"/><stop offset="1" style="stop-color:white;stop-opacity:0"/></linearGradient><radialGradient id="a" cx="0" cy="0" r="1" gradientUnits="userSpaceOnUse" gradientTransform="scale(276.517 304.87) rotate(90 .82 2.203)"><stop offset="0" style="stop-color:white;stop-opacity:.05"/><stop offset="1" style="stop-color:white;stop-opacity:0"/></radialGradient><radialGradient id="b" cx="0" cy="0" r="1" gradientUnits="userSpaceOnUse" gradientTransform="matrix(276.517 0 0 -304.87 835.918 421.565)"><stop offset="0" style="stop-color:white;stop-opacity:.2"/><stop offset="1" style="stop-color:white;stop-opacity:0"/></radialGradient><radialGradient id="o" cx="0" cy="0" r="1" gradientUnits="userSpaceOnUse" gradientTransform="matrix(500 158 -161.15 490.227 1670 1162)"><stop offset="0" style="stop-color:#f29954;stop-opacity:1"/><stop offset="1" style="stop-color:#f08b3d;stop-opacity:1"/></radialGradient></defs></svg>

<?xml version="1.0" encoding="UTF-8" standalone="no"?>
<!DOCTYPE svg PUBLIC "-//W3C//DTD SVG 1.1//EN" "http://www.w3.org/Graphics/SVG/1.1/DTD/svg11.dtd">
<svg width="100%" height="100%" viewBox="0 0 1000 500" version="1.1" xmlns="http://www.w3.org/2000/svg" xmlns:xlink="http://www.w3.org/1999/xlink" xml:space="preserve" xmlns:serif="http://www.serif.com/" style="fill-rule:evenodd;clip-rule:evenodd;stroke-linejoin:round;stroke-miterlimit:2;">
    <g transform="matrix(3.28009,0,0,0.799452,-2648.88,-101.021)">
        <path d="M1112.43,726.435L807.565,726.435L836.006,421.565L1112.43,421.565L1112.43,726.435Z" style="fill:url(#_Radial1);"/>
        <path d="M1112.43,726.435L807.565,726.435L836.006,421.565L1112.43,421.565L1112.43,726.435ZM1111.83,723.933L808.451,723.933C808.451,723.933 836.425,424.067 836.425,424.067C836.425,424.067 1097.52,424.067 1111.83,424.067C1111.83,424.067 1111.83,723.933 1111.83,723.933L1111.83,723.933Z" style="fill:url(#_Radial2);"/>
    </g>
    <g transform="matrix(0.318752,1.12537e-19,0,0.345284,-112.004,-107.729)">
        <g transform="matrix(1,0,0,1.35514,-2.27374e-12,-373.639)">
            <path d="M2337.05,1293.39L2337.05,1322.38C2337.05,1327.4 2335.05,1332.38 2331.15,1336.67C2324.7,1343.75 2313.89,1348 2302.33,1348L1537.67,1348C1526.11,1348 1515.3,1343.75 1508.85,1336.67C1504.95,1332.38 1502.95,1327.4 1502.95,1322.38L1502.95,1293.39L2337.05,1293.39Z" style="fill:rgb(239,128,42);"/>
            <clipPath id="_clip3">
                <path d="M2337.05,1293.39L2337.05,1322.38C2337.05,1327.4 2335.05,1332.38 2331.15,1336.67C2324.7,1343.75 2313.89,1348 2302.33,1348L1537.67,1348C1526.11,1348 1515.3,1343.75 1508.85,1336.67C1504.95,1332.38 1502.95,1327.4 1502.95,1322.38L1502.95,1293.39L2337.05,1293.39Z"/>
            </clipPath>
            <g clip-path="url(#_clip3)">
                <g transform="matrix(1,0,0,0.737931,2.27374e-12,275.72)">
                    <path d="M2337.05,1418.46C2337.05,1427.64 2333.4,1436.45 2326.91,1442.95C2320.41,1449.44 2311.6,1453.09 2302.42,1453.09C2186,1453.09 1816,1453.09 1816,1453.09L1816,1379.09L2337.05,1379.09L2337.05,1418.46Z" style="fill:url(#_Linear4);"/>
                </g>
            </g>
            <path d="M2337.05,1293.39L2337.05,1322.38C2337.05,1327.4 2335.05,1332.38 2331.15,1336.67C2324.7,1343.75 2313.89,1348 2302.33,1348L1537.67,1348C1526.11,1348 1515.3,1343.75 1508.85,1336.67C1504.95,1332.38 1502.95,1327.4 1502.95,1322.38L1502.95,1293.39L2337.05,1293.39ZM2328.68,1299.09L2328.68,1322.38C2328.68,1326.34 2327.12,1330.28 2324.04,1333.66C2319.16,1339.02 2311.07,1342.3 2302.33,1342.3L1537.67,1342.3C1528.93,1342.3 1520.84,1339.02 1515.96,1333.66C1512.88,1330.28 1511.32,1326.34 1511.32,1322.38C1511.32,1322.38 1511.32,1299.09 1511.32,1299.09L2328.68,1299.09Z" style="fill:url(#_Linear5);"/>
        </g>
        <g transform="matrix(1,0,0,1.35514,-2.50111e-12,-412.639)">
            <path d="M2334.47,1312.7C2338.84,1320.6 2337.6,1329.59 2331.15,1336.67C2329.37,1338.62 2327.28,1340.35 2324.93,1341.84C2318.74,1345.77 2310.79,1348 2302.33,1348C2148.05,1348 1691.94,1348 1537.67,1348C1526.11,1348 1515.3,1343.75 1508.85,1336.67C1502.4,1329.59 1501.16,1320.6 1505.53,1312.7C1531.57,1265.61 1576.6,1184.21 1595.56,1149.94C1600.89,1140.3 1613.59,1134 1627.7,1134C1726.9,1134 2113.1,1134 2212.3,1134C2226.41,1134 2239.11,1140.3 2244.45,1149.94C2263.4,1184.21 2308.43,1265.61 2334.47,1312.7Z" style="fill:url(#_Linear6);"/>
            <clipPath id="_clip7">
                <path d="M2334.47,1312.7C2338.84,1320.6 2337.6,1329.59 2331.15,1336.67C2329.37,1338.62 2327.28,1340.35 2324.93,1341.84C2318.74,1345.77 2310.79,1348 2302.33,1348C2148.05,1348 1691.94,1348 1537.67,1348C1526.11,1348 1515.3,1343.75 1508.85,1336.67C1502.4,1329.59 1501.16,1320.6 1505.53,1312.7C1531.57,1265.61 1576.6,1184.21 1595.56,1149.94C1600.89,1140.3 1613.59,1134 1627.7,1134C1726.9,1134 2113.1,1134 2212.3,1134C2226.41,1134 2239.11,1140.3 2244.45,1149.94C2263.4,1184.21 2308.43,1265.61 2334.47,1312.7Z"/>
            </clipPath>
            <g clip-path="url(#_clip7)">
                <g transform="matrix(2.7226,0,0.738636,0.545268,-4171.39,596.026)">
                    <path d="M2015,1158.84L1836.57,1159.09L1825,1201.69L1825,1379.09L2015,1379.09L2015,1158.84Z" style="fill:url(#_Linear8);"/>
                </g>
            </g>
            <path d="M2334.47,1312.7C2338.84,1320.6 2337.6,1329.59 2331.15,1336.67C2329.37,1338.62 2327.28,1340.35 2324.93,1341.84C2318.74,1345.77 2310.79,1348 2302.33,1348C2148.05,1348 1691.94,1348 1537.67,1348C1526.11,1348 1515.3,1343.75 1508.85,1336.67C1502.4,1329.59 1501.16,1320.6 1505.53,1312.7C1531.57,1265.61 1576.6,1184.21 1595.56,1149.94C1600.89,1140.3 1613.59,1134 1627.7,1134C1726.9,1134 2113.1,1134 2212.3,1134C2226.41,1134 2239.11,1140.3 2244.45,1149.94C2263.4,1184.21 2308.43,1265.61 2334.47,1312.7ZM2326.64,1314.71C2330.1,1320.95 2329.14,1328.06 2324.04,1333.66C2322.66,1335.17 2321.05,1336.52 2319.23,1337.67C2314.6,1340.61 2308.66,1342.3 2302.33,1342.3C2148.05,1342.3 1691.94,1342.3 1537.67,1342.3C1528.93,1342.3 1520.84,1339.02 1515.96,1333.66C1510.86,1328.06 1509.9,1320.95 1513.36,1314.71C1539.4,1267.62 1584.43,1186.22 1603.38,1151.95C1607.44,1144.62 1616.97,1139.7 1627.7,1139.7C1726.9,1139.7 2113.1,1139.7 2212.3,1139.7C2223.03,1139.7 2232.56,1144.62 2236.62,1151.95C2255.57,1186.22 2300.6,1267.62 2326.64,1314.71Z" style="fill:url(#_Linear9);"/>
        </g>
        <path d="M1847.85,640.538C1850.67,628.496 1881.92,618.994 1920,618.994C1958.08,618.994 1989.33,628.496 1992.15,640.538L2169.52,1245.86C2170.36,1248.75 2170.79,1251.75 2170.79,1254.76C2170.79,1254.76 2170.79,1254.76 2170.79,1254.76C2170.79,1299.37 2058.42,1335.59 1920,1335.59C1781.58,1335.59 1669.21,1299.37 1669.21,1254.76L1669.21,1254.76C1669.21,1251.75 1669.64,1248.75 1670.48,1245.86L1847.85,640.538Z" style="fill:url(#_Linear10);"/>
        <clipPath id="_clip11">
            <path d="M1847.85,640.538C1850.67,628.496 1881.92,618.994 1920,618.994C1958.08,618.994 1989.33,628.496 1992.15,640.538L2169.52,1245.86C2170.36,1248.75 2170.79,1251.75 2170.79,1254.76C2170.79,1254.76 2170.79,1254.76 2170.79,1254.76C2170.79,1299.37 2058.42,1335.59 1920,1335.59C1781.58,1335.59 1669.21,1299.37 1669.21,1254.76L1669.21,1254.76C1669.21,1251.75 1669.64,1248.75 1670.48,1245.86L1847.85,640.538Z"/>
        </clipPath>
        <g clip-path="url(#_clip11)">
            <g transform="matrix(1.01487,0,0,1.0351,-28.5493,-14.0266)">
                <path d="M2131.12,1100.8C2131.12,1137.62 2036.52,1167.51 1920,1167.51C1803.48,1167.51 1708.92,1137.62 1708.92,1100.8L1742.61,988.046C1742.61,1019 1822.04,1044.13 1920,1044.13C2017.96,1044.13 2097.39,1019 2097.39,988.046L2131.12,1100.8Z" style="fill:url(#_Linear12);"/>
            </g>
            <g transform="matrix(0.682947,0,0,0.696562,608.741,119.095)">
                <path d="M2130.9,1100.8C2130.9,1137.62 2036.52,1167.51 1920,1167.51C1803.48,1167.51 1709.1,1137.62 1709.1,1100.8L1761.82,924.389C1761.82,952.067 1832.41,974.538 1920,974.538C2007.59,974.538 2078.18,952.067 2078.18,924.389L2130.9,1100.8Z" style="fill:url(#_Linear13);"/>
            </g>
        </g>
        <path d="M1847.85,640.538C1850.67,628.496 1881.92,618.994 1920,618.994C1958.08,618.994 1989.33,628.496 1992.15,640.538L2169.52,1245.86C2170.36,1248.75 2170.79,1251.75 2170.79,1254.76C2170.79,1254.76 2170.79,1254.76 2170.79,1254.76C2170.79,1299.37 2058.42,1335.59 1920,1335.59C1781.58,1335.59 1669.21,1299.37 1669.21,1254.76L1669.21,1254.76C1669.21,1251.75 1669.64,1248.75 1670.48,1245.86L1847.85,640.538ZM1855.92,642.555C1855.96,642.427 1856,642.298 1856.03,642.169C1856.26,641.177 1857.18,640.375 1858.28,639.49C1860.4,637.78 1863.32,636.247 1866.84,634.832C1879.31,629.812 1898.51,626.717 1920,626.717C1941.49,626.717 1960.69,629.812 1973.16,634.832C1976.68,636.247 1979.6,637.78 1981.72,639.49C1982.82,640.375 1983.74,641.177 1983.97,642.169C1984,642.298 1984.04,642.427 1984.08,642.555L2161.44,1247.88C2162.1,1250.11 2162.43,1252.43 2162.43,1254.76C2162.43,1254.76 2162.43,1254.76 2162.43,1254.76C2162.43,1261.87 2158.55,1268.57 2151.95,1274.97C2144.23,1282.43 2132.93,1289.3 2118.78,1295.51C2073.95,1315.22 2001.56,1327.87 1920,1327.87C1838.44,1327.87 1766.05,1315.22 1721.22,1295.51C1707.07,1289.3 1695.77,1282.43 1688.05,1274.97C1681.44,1268.57 1677.57,1261.87 1677.57,1254.76L1677.57,1254.76C1677.57,1252.43 1677.9,1250.11 1678.56,1247.88C1678.56,1247.88 1855.92,642.555 1855.92,642.555Z" style="fill:url(#_Linear14);"/>
        <g transform="matrix(0.28943,0,0,0.2952,1364.29,275.971)">
            <ellipse cx="1920" cy="1241" rx="250" ry="79" style="fill:url(#_Radial15);"/>
            <path d="M1920,1162C2057.98,1162 2170,1197.4 2170,1241C2170,1284.6 2057.98,1320 1920,1320C1782.02,1320 1670,1284.6 1670,1241C1670,1197.4 1782.02,1162 1920,1162ZM1920,1188.16C1997.65,1188.16 2066.63,1199.58 2109.31,1217.98C2120.77,1222.92 2130.08,1228.17 2136.34,1234.1C2138.78,1236.42 2141.1,1238.42 2141.1,1241C2141.1,1243.58 2138.78,1245.58 2136.34,1247.9C2130.08,1253.83 2120.77,1259.08 2109.31,1264.02C2066.63,1282.42 1997.65,1293.84 1920,1293.84C1842.35,1293.84 1773.37,1282.42 1730.69,1264.02C1719.23,1259.08 1709.92,1253.83 1703.66,1247.9C1701.22,1245.58 1698.9,1243.58 1698.9,1241C1698.9,1238.42 1701.22,1236.42 1703.66,1234.1C1709.92,1228.17 1719.23,1222.92 1730.69,1217.98C1773.37,1199.58 1842.35,1188.16 1920,1188.16Z" style="fill:url(#_Linear16);"/>
        </g>
    </g>
    <defs>
        <radialGradient id="_Radial1" cx="0" cy="0" r="1" gradientUnits="userSpaceOnUse" gradientTransform="matrix(2.68536e-13,304.87,-276.517,4.08842e-12,835.918,421.565)"><stop offset="0" style="stop-color:white;stop-opacity:0.05"/><stop offset="1" style="stop-color:white;stop-opacity:0"/></radialGradient>
        <radialGradient id="_Radial2" cx="0" cy="0" r="1" gradientUnits="userSpaceOnUse" gradientTransform="matrix(276.517,0,0,-304.87,835.918,421.565)"><stop offset="0" style="stop-color:white;stop-opacity:0.2"/><stop offset="1" style="stop-color:white;stop-opacity:0"/></radialGradient>
        <linearGradient id="_Linear4" x1="0" y1="0" x2="1" y2="0" gradientUnits="userSpaceOnUse" gradientTransform="matrix(521.048,0,-0,521.048,1816,1416.09)"><stop offset="0" style="stop-color:rgb(218,83,19);stop-opacity:0.3"/><stop offset="1" style="stop-color:rgb(241,146,102);stop-opacity:0.3"/></linearGradient>
        <linearGradient id="_Linear5" x1="0" y1="0" x2="1" y2="0" gradientUnits="userSpaceOnUse" gradientTransform="matrix(732.048,242.779,-356.385,498.692,1605,1105.22)"><stop offset="0" style="stop-color:white;stop-opacity:0.15"/><stop offset="1" style="stop-color:white;stop-opacity:0"/></linearGradient>
        <linearGradient id="_Linear6" x1="0" y1="0" x2="1" y2="0" gradientUnits="userSpaceOnUse" gradientTransform="matrix(730.048,214,-314.139,497.329,1607,1134)"><stop offset="0" style="stop-color:rgb(242,153,84);stop-opacity:1"/><stop offset="1" style="stop-color:rgb(240,139,61);stop-opacity:1"/></linearGradient>
        <linearGradient id="_Linear8" x1="0" y1="0" x2="1" y2="0" gradientUnits="userSpaceOnUse" gradientTransform="matrix(-59.5126,219.362,-59.535,1.34321e-14,1922.71,1159.73)"><stop offset="0" style="stop-color:rgb(197,84,30);stop-opacity:0.4"/><stop offset="0.54" style="stop-color:rgb(205,87,30);stop-opacity:0.33"/><stop offset="1" style="stop-color:rgb(235,97,32);stop-opacity:0.1"/></linearGradient>
        <linearGradient id="_Linear9" x1="0" y1="0" x2="1" y2="0" gradientUnits="userSpaceOnUse" gradientTransform="matrix(732.048,242.779,-356.385,498.692,1605,1134)"><stop offset="0" style="stop-color:white;stop-opacity:0.35"/><stop offset="1" style="stop-color:white;stop-opacity:0.17"/></linearGradient>
        <linearGradient id="_Linear10" x1="0" y1="0" x2="1" y2="0" gradientUnits="userSpaceOnUse" gradientTransform="matrix(387,387,-419.212,357.263,1775.91,890)"><stop offset="0" style="stop-color:rgb(239,128,42);stop-opacity:1"/><stop offset="1" style="stop-color:rgb(223,98,23);stop-opacity:1"/></linearGradient>
        <linearGradient id="_Linear12" x1="0" y1="0" x2="1" y2="0" gradientUnits="userSpaceOnUse" gradientTransform="matrix(422.207,0,0,413.955,1708.92,1056.93)"><stop offset="0" style="stop-color:rgb(235,235,235);stop-opacity:1"/><stop offset="0.56" style="stop-color:rgb(230,223,221);stop-opacity:1"/><stop offset="1" style="stop-color:rgb(209,177,168);stop-opacity:1"/></linearGradient>
        <linearGradient id="_Linear13" x1="0" y1="0" x2="1" y2="0" gradientUnits="userSpaceOnUse" gradientTransform="matrix(421.804,1.63211e-13,-1.66465e-13,413.559,1709.1,1045.95)"><stop offset="0" style="stop-color:rgb(235,235,235);stop-opacity:1"/><stop offset="0.56" style="stop-color:rgb(230,223,221);stop-opacity:1"/><stop offset="1" style="stop-color:rgb(209,177,168);stop-opacity:1"/></linearGradient>
        <linearGradient id="_Linear14" x1="0" y1="0" x2="1" y2="0" gradientUnits="userSpaceOnUse" gradientTransform="matrix(144.035,505.096,-547.139,132.967,1920,618.994)"><stop offset="0" style="stop-color:white;stop-opacity:0.3"/><stop offset="1" style="stop-color:white;stop-opacity:0"/></linearGradient>
        <radialGradient id="_Radial15" cx="0" cy="0" r="1" gradientUnits="userSpaceOnUse" gradientTransform="matrix(500,158,-161.15,490.227,1670,1162)"><stop offset="0" style="stop-color:rgb(242,153,84);stop-opacity:1"/><stop offset="1" style="stop-color:rgb(240,139,61);stop-opacity:1"/></radialGradient>
        <linearGradient id="_Linear16" x1="0" y1="0" x2="1" y2="0" gradientUnits="userSpaceOnUse" gradientTransform="matrix(93.2868,416.688,-460.37,84.4354,1920,1162)"><stop offset="0" style="stop-color:white;stop-opacity:0.3"/><stop offset="1" style="stop-color:white;stop-opacity:0"/></linearGradient>
    </defs>
</svg>
